X: 1
M: 3/4
L: 1/4
K: D
|: "D"A2 d | f2 e | "G"d2 c | d c B | "D"A2 A | F2 G | A3- | A3 | "A7"G2 G | E2 F | G3- | G3 |
|1 "D"A2 A | F2 G | A3- | A3 :|2 "D"A2 A | f2 e | d3- | d3 [| "D"f f/e/d | f f/e/d | "B7"f g> f | "Em"e3 |
| "A7"e e/d/c | e e/d/c | e f> e | "D"d3 || "D" f f/e/d | f f/e/d | "B7"f g> f | "Em"e f \
| "Em"g f e | "D"d c B | "A7"A B c | "D"d3 |]
P: with harmony and "cuckoos"
|: "D"[A2F] [dA] | [f2d] [ec] | "G"[d2B] [cA] | [dB] [cA] [BG] \
| "D"[A2F] [AF] | [F2D] [GE] | [A2F] .[af] | [f3d] | "A7"[G2E] [GE] | [E2C] [FD] | [G2E] .[ge] | [e3c] |
|1 "D"[A2F] [AF] | [F2D] [GE] | [A2F] .[af] | [f3d] :|2 "D"[A2F] [AF] | [f2A] [eG] | [d3F]- | [d3F] \
[| "D"[fA] [f/A][e/G][dF] | [fA] [f/A][e/G][dF] | "B7"[fA] [gB]> [fA] | "Em"[e3G] |
| "A7"[eG] [e/G][d/F][cE] | [eG] [e/G][d/F][cE] | [eG] [fA]> [eG] | "D"[d3F] \
|| "D" [fA] [f/A][e/G][dF] | [fA] [f/A][e/G][dF] | "B7"[fA] [gB]> [fA] | "Em"[e2G] [fA] \
| "Em"[gB] [fA] [eG] | "D"[dF] [cF] [BG] | "A7"[AA] [B_A] [cG] | "D"[d3F] |]

